X: 43161
T: Winter Night Schottische, The
R: barndance
M: 4/4
K: Gmajor
B2|:E2ED EFGA|B2BA B2e2|B2e2 B2AB|GBFB E2ED|
E3D EFGA|B2BA B2e2|B2e2 B2AB|GBFB E2 d/e/f|:
g2B2 dBGB|cABG EGFE|DEFG ABcd|edcd B2 d/e/f|
g2B2 dBGB|cABG EGFE|DEFG AcBA|1 G2B2 G2 d/e/f:|2 G2B2 G2||

